X: 11024
Q: "Strathspey."
M: C
L: 1/8
K: F
f>gfd egg2 | a<a b/a/g/f/ e(gga) |
f>gfc (3(def) (3(efg) | fc c/d/c/B/ AFFc |\
f>gf>e e<g-g<g | a>a b/a/g/f/ eg-gc |\
(3(def) (3(efg) (3(fga) (3(gfe) | fc c/d/c/B/ AFF |]


